!!!OTL: EIN HERZ DAS SICH MIT SORGEN QUAELT
!!!ARE: Europa, Mitteleuropa, Deutschland; France, Elsass, Weissenburg
!!!SCT: B0285A
!!!YEM: Copyright 1995, estate of Helmut Schaffrath.
**kern
*ICvox
*Ivox
*M3/4
*k[f#c#]
*D:
{8d
8f#
=1
2a
4a
=2
4a
4b}
{8a
8g
=3
4.a
8e
4d
=4
4d
4e}
{8f#
8a
=5
2g
4g
=6
4f#
4a}
{4f#
=7
4f#
4e}
{8d
8f#
=8
2a
4a
=9
4a
4b}
{8a
8g
=10
4.a
8e
4d
=11
4d
4e}
{8f#
8a
=12
2g
4g
=13
4f#
4a}
{4f#
=14
4f#
4e}
{4a
=15
4g#
4e
4e
=16
4a
4cc#}
{4ee
=17
4dd
4cc#
4b
=18
2a
4r}
=19
{4f#
4f#
4f#
=20
4a
4g
4r}
=21
{4e
4f#
4g
=22
4b
4a
4r}
=23
{4f#
4f#
4f#
=24
4g
4b}
{8dd
8b
=25
4a
4b
4cc#
=26
4dd
4r}
==
!!!AGN: Stimmungs - Lied, Freude
!!!ONB: ESAC (Essen Associative Code) Database: BOEHME
!!!AMT: simple triple
!!!AIN: vox
!!!EED: Helmut Schaffrath
!!!EEV: 1.0
*-
